src/icons/outline/document-report.svg

<svg width="24" height="24" viewBox="0 0 24 24" fill="none" xmlns="http://www.w3.org/2000/svg">
<path d="M9 17V15M12 17V13M15 17V11M17 21H7C5.89543 21 5 20.1046 5 19V5C5 3.89543 5.89543 3 7 3H12.5858C12.851 3 13.1054 3.10536 13.2929 3.29289L18.7071 8.70711C18.8946 8.89464 19 9.149 19 9.41421V19C19 20.1046 18.1046 21 17 21Z" stroke="#4A5568" stroke-width="2" stroke-linecap="round" stroke-linejoin="round"/>
</svg>

<svg xmlns="http://www.w3.org/2000/svg" fill="none" viewBox="0 0 24 24" stroke="currentColor">
  <path stroke-linecap="round" stroke-linejoin="round" stroke-width="2" d="M9 17v-2m3 2v-4m3 4v-6m2 10H7a2 2 0 01-2-2V5a2 2 0 012-2h5.586a1 1 0 01.707.293l5.414 5.414a1 1 0 01.293.707V19a2 2 0 01-2 2z"/>
</svg>
